images/icons/social/codepen.svg

<svg viewBox="0 0 24 24" xmlns="http://www.w3.org/2000/svg"><path d="m22.8805161 7.3556129-10.8387096-7.22554838c-.2601291-.17341936-.5992259-.17341936-.8585807 0l-10.83870967 7.22554838c-.21522581.14322581-.34451613.38554839-.34451613.64412904v7.22554836c0 .2585807.12929032.5009032.34451613.6441291l10.83870967 7.2255483c.1300645.0867097.2794839.1300646.4296774.1300646.1501936 0 .2996129-.0433549.4296774-.1300646l10.8387097-7.2255483c.2152258-.1432259.3445162-.3855484.3445162-.6441291v-7.22554836c0-.25858065-.1292904-.50090323-.3445162-.64412904zm-11.2683871 6.939871-4.02348384-2.6825807 4.02348384-2.68258062 4.0234839 2.68258062zm.7741936-6.70993551v-5.36516129l8.6686451 5.77935484-4.0234838 2.68258066zm-1.5483871 0-4.64516131 3.09677421-4.02348387-2.68258066 8.66864518-5.77935484zm-6.04103227 4.02735481-3.24929033 2.1661936v-4.33238712zm1.39587096.9305807 4.64516131 3.0967742v5.3651613l-8.66864518-5.7793549zm6.19354841 3.0967742 4.6451613-3.0967742 4.0234838 2.6825806-8.6686451 5.7793549zm6.0410322-4.0273549 3.2492904-2.16619352v4.33238712z" fill="#fff" fill-rule="evenodd" transform=""/></svg>

<?xml version="1.0" encoding="UTF-8"?>
<svg viewBox="0 0 24 24" version="1.1" xmlns="http://www.w3.org/2000/svg" xmlns:xlink="http://www.w3.org/1999/xlink">
    <defs></defs>
    <g id="Mockups-v5-Sizes" stroke="none" stroke-width="1" fill="none" fill-rule="evenodd">
        <g id="Desktop-—-1920" transform="translate(-568.000000, -3147.000000)" fill="#FFFFFF">
            <g id="Group-29" transform="translate(376.000000, 3135.000000)">
                <g id="codepen-copy" transform="translate(192.000000, 12.000000)">
                    <path d="M22.8805161,7.3556129 L12.0418065,0.130064516 C11.7816774,-0.0433548387 11.4425806,-0.0433548387 11.1832258,0.130064516 L0.344516129,7.3556129 C0.129290323,7.49883871 0,7.74116129 0,7.99974194 L0,15.2252903 C0,15.483871 0.129290323,15.7261935 0.344516129,15.8694194 L11.1832258,23.0949677 C11.3132903,23.1816774 11.4627097,23.2250323 11.6129032,23.2250323 C11.7630968,23.2250323 11.9125161,23.1816774 12.0425806,23.0949677 L22.8812903,15.8694194 C23.0965161,15.7261935 23.2258065,15.483871 23.2258065,15.2252903 L23.2258065,7.99974194 C23.2258065,7.74116129 23.0965161,7.49883871 22.8812903,7.3556129 L22.8805161,7.3556129 Z M11.612129,14.2954839 L7.58864516,11.6129032 L11.612129,8.93032258 L15.6356129,11.6129032 L11.612129,14.2954839 Z M12.3863226,7.58554839 L12.3863226,2.2203871 L21.0549677,7.99974194 L17.0314839,10.6823226 L12.3863226,7.58554839 Z M10.8379355,7.58554839 L6.19277419,10.6823226 L2.16929032,7.99974194 L10.8379355,2.2203871 L10.8379355,7.58554839 Z M4.79690323,11.6129032 L1.5476129,13.7790968 L1.5476129,9.44670968 L4.79690323,11.6129032 Z M6.19277419,12.5434839 L10.8379355,15.6402581 L10.8379355,21.0054194 L2.16929032,15.2260645 L6.19277419,12.5434839 Z M12.3863226,15.6402581 L17.0314839,12.5434839 L21.0549677,15.2260645 L12.3863226,21.0054194 L12.3863226,15.6402581 Z M18.4273548,11.6129032 L21.6766452,9.44670968 L21.6766452,13.7790968 L18.4273548,11.6129032 Z"
                          id="Shape"></path>
                </g>
            </g>
        </g>
    </g>
</svg>
